apps/www/public/images/index/products/realtime-light.svg

<svg width="330" height="430" viewBox="0 0 330 430" fill="none" xmlns="http://www.w3.org/2000/svg">
<g clip-path="url(#clip0_401_8067)">
<path d="M-16.542 -10.5469L-16.542 446.906M-2.54197 -10.5469L-2.54195 446.906M11.4581 -10.5469L11.4581 446.906M25.4581 -10.5469L25.4581 446.906M39.4581 -10.5469L39.4581 446.906M53.4581 -10.5469L53.4581 446.906M67.4581 -10.5469L67.4582 446.906M81.4582 -10.5469L81.4582 446.906M95.4582 -10.5469L95.4582 446.906M109.458 -10.5469L109.458 446.906M123.458 -10.5469L123.458 446.906M137.458 -10.5469L137.458 446.906M151.458 -10.5469L151.458 446.906M165.458 -10.5469L165.458 446.906M179.458 -10.5469L179.458 446.906M193.458 -10.5469L193.458 446.906M207.458 -10.5469L207.458 446.906M221.458 -10.5469L221.458 446.906M235.458 -10.5469L235.458 446.906M249.458 -10.5469L249.458 446.906M263.458 -10.5469L263.458 446.906M277.458 -10.5469L277.458 446.906M291.458 -10.5469L291.458 446.906M305.458 -10.5469L305.459 446.906M319.459 -10.5469L319.459 446.906M333.459 -10.5469L333.459 446.906M347.459 -10.5469L347.459 446.906M361.459 -10.5469L361.459 446.906M375.459 -10.5469L375.459 446.906M440.615 -0.25H-16.8379M440.615 13.75H-16.8379M440.615 27.75H-16.8379M440.615 41.7501H-16.8379M440.615 55.7501H-16.8379M440.615 69.7501H-16.8379M440.615 83.7501H-16.8379M440.615 97.7501H-16.8379M440.615 111.75H-16.8379M440.615 125.75H-16.8379M440.615 139.75H-16.8379M440.615 153.75H-16.8379M440.615 167.75H-16.8379M440.615 181.75H-16.8379M440.615 195.75H-16.8379M440.615 209.75H-16.8379M440.615 223.75H-16.8379M440.615 237.75H-16.8379M440.615 251.75H-16.8379M440.615 265.75H-16.8379M440.615 279.75H-16.8379M440.615 293.75H-16.8379M440.615 307.75H-16.8379M440.615 321.75H-16.8379M440.615 335.751H-16.8379M440.615 349.751H-16.8379M440.615 363.751H-16.8379M440.615 377.751H-16.8379M440.615 391.751H-16.8379M440.615 405.751H-16.8379M440.615 419.751H-16.8379M440.615 433.751H-16.8379" stroke="#F3F3F3" stroke-width="0.5"/>
</g>
<defs>
<clipPath id="clip0_401_8067">
<rect width="330" height="430" fill="white"/>
</clipPath>
</defs>
</svg>

<svg xmlns="http://www.w3.org/2000/svg" width="330" height="430" fill="none" viewBox="0 0 330 430"><g clip-path="url(#a)"><path stroke="#f3f3f3" stroke-width=".5" d="M-16.542-10.547v457.453m14-457.453v457.453m14-457.453v457.453m14-457.453v457.453m14-457.453v457.453m14-457.453v457.453m14-457.453v457.453m14-457.453v457.453m14-457.453v457.453m14-457.453v457.453m14-457.453v457.453m14-457.453v457.453m14-457.453v457.453m14-457.453v457.453m14-457.453v457.453m14-457.453v457.453m14-457.453v457.453m14-457.453v457.453m14-457.453v457.453m14-457.453v457.453m14-457.453v457.453m14-457.453v457.453m14-457.453v457.453m14-457.453.001 457.453m14-457.453v457.453m14-457.453v457.453m14-457.453v457.453m14-457.453v457.453m14-457.453v457.453M440.615-.25H-16.838m457.453 14H-16.838m457.453 14H-16.838m457.453 14H-16.838m457.453 14H-16.838m457.453 14H-16.838m457.453 14H-16.838m457.453 14H-16.838m457.453 14H-16.838m457.453 14H-16.838m457.453 14H-16.838m457.453 14H-16.838m457.453 14H-16.838m457.453 14H-16.838m457.453 14H-16.838m457.453 14H-16.838m457.453 14H-16.838m457.453 14H-16.838m457.453 14H-16.838m457.453 14H-16.838m457.453 14H-16.838m457.453 14H-16.838m457.453 14H-16.838m457.453 14H-16.838m457.453 14.001H-16.838m457.453 14H-16.838m457.453 14H-16.838m457.453 14H-16.838m457.453 14H-16.838m457.453 14H-16.838m457.453 14H-16.838m457.453 14H-16.838"/></g><defs><clipPath id="a"><path fill="#fff" d="M0 0h330v430H0z"/></clipPath></defs></svg>
